!!!COM:	Johannes Ockeghem
!!!CDT:	~1425-1497/02/06
!!!OPR:	Missa Quinti toni
!!!ONM:	3
!!!OTL:	Credo
!!!AGN:	Mass; Credo
!!!SCT:	Ock1012c
!!!SCA:	Ock1012c
!!!voices:	3
!!!voices-OPR:	3
**kern	**kern	**kern
*staff3	*staff2	*staff1
*Ivox	*Ivox	*Ivox
*I"Contratenor	*I"Tenor	*I"Discantus
*I'Ct	*I'T	*I'D
*>[A,B,C]	*>[A,B,C]	*>[A,B,C]
*>A	*>A	*>A
*clefF4	*clefGv2	*clefG2
*k[b-]	*k[b-]	*k[]
*M2/1	*M2/1	*M2/1
*met(C)	*met(C)	*met(C)
!!section: Patrem
!!!OMD: Patrem
=1-	=1-	=1-
1F	1F	0f
1D	2B-\	.
.	2A/	.
=2	=2	=2
2BB-/	2B-\	2d/
2AA/	2c\	4c/
.	.	4d/
2C/	1A	2e/
2D\	.	2f/
=3	=3	=3
2GG/	1G	1g
1C	.	.
.	[1c	2g/
2C/	.	2g/
=4	=4	=4
2E\	2c\]	2g/
2F\	2F/	1a
1D	2A/	.
.	2B-\	2f/
=5	=5	=5
2r	1c	1e
2A\	.	.
2A\	1c	2e/
[2A\	.	2e/
=6	=6	=6
4A\]	2c\	2e/
4G\	.	.
2.E\	2c\	2.e/
.	1B-	.
4F\	.	4d/
2G\	.	2d/
=7	=7	=7
2C/	2c\	2c/
1BB-	1d	1f
2C/	2c\	2e/
=8	=8	=8
1G	2.B-\	2.d/
.	4A/	4c/
2r	1c	1A
2F\	.	.
=9	=9	=9
2G\	2B-\	1r
2A\	1c	.
[1F	.	1a
.	2A/	.
=10	=10	=10
2F\]	2c\	2a/
2E\	2G/	2g/
1C	1c	2a/
.	.	[2cc\
=11	=11	=11
2r	1d	2cc\]
2GG/	.	2b\
2AA/	2c\	2.cc\
[2C/	[2e\	.
.	.	4b\
=12	=12	=12
2C/]	2e\]	2g/
2FF/	1f	1a
2AA/	.	.
2BB-/	2d\	2f/
=13	=13	=13
1C	1c	2e/
.	.	2c/
1GG	2r	1d
.	2B-\	.
=14	=14	=14
1G	2B-\	2r
.	1B-	2d/
1r	.	2d/
.	2B-\	[2d/
=15	=15	=15
1G	2B-\	2d/]
.	2B-\	2d/
2C/	1c	2.e/
2E\	.	.
.	.	4c/
=16	=16	=16
2D\	1d	2.f/
1F	.	.
.	.	4g/
.	2c\	2a/
[2G\	2B-\	4g/
.	.	4f/
=17	=17	=17
4G\]	2d\	2b-i\
4D\	.	.
1F	2c\	2.a/
.	1F	.
.	.	4f/
2D\	.	[2f/
=18	=18	=18
1C	1G	2f/]
.	.	2e/
2FF/	2r	1f
[2BB-/	2d\	.
=19	=19	=19
4BB-/]	2d\	2r
4C/	.	.
2.D\	1d	2a/
.	.	2a/
8C/L	.	.
8BB-/J	.	.
2AA/	2c\	[2a/
=20	=20	=20
2D\	2d\	2a/]
2E\	2B-\	2g/
2F\	1A	2a/
2D\	.	2f/
=21	=21	=21
2C/	2r	1e
1AA	1c	.
.	.	2r
2GG/	2B-\	[2g/
=22	=22	=22
2C/	2c\	2g/]
2D\	2A/	2f/
2.E\	1G	2g/
.	.	2e/
4F\	.	.
=23	=23	=23
1G	2r	2d/
.	2d\	2r
2F\	2d\	2a/
[2D\	2d\	2a/
=24	=24	=24
2D\]	2.d\	2a/
2D\	.	2.a/
.	4c\	.
2F\	2A/	.
.	.	4f/
[2A\	2r	2e/
=25	=25	=25
4A\]	2e\	2r
4G\	.	.
2E\	2e\	2b\
1G	2e\	2b\
.	2e\	2b\
=26	=26	=26
2F\	2f\	2a/
2C/	2e\	2g/
2r	1c	2a/
2C/	.	[2cc\
=27	=27	=27
1G	1d	2cc\]
.	.	2b\
2E\	2e\	2g/
[2F\	[2A/	2a/
=28	=28	=28
4F\]	2A/]	2cc\
4D\	.	.
2E\	2G/	2.b\
1AA	1A	.
.	.	4a/
.	.	[2a/
=29	=29	=29
1r	1B-	2a/]
.	.	2g/
1AA	1A	2f/
.	.	2e/
=30	=30	=30
1D	1r	1f
2C/	1A	2e/
2AA/	.	2c/
=31	=31	=31
1GG	1B-	1d
2r	1c	1c
2C/	.	.
=32	=32	=32
2BB-/	1d	2r
2D\	.	2f/
2E\	1c	2g/
[2F\	.	[2a/
=33	=33	=33
2F\]	1F	2a/]
2D\	.	2a/
2C/	1c	2a/
2F\	.	2a/
=34	=34	=34
2r	1B-	4g/
.	.	2f/
2BB-/	.	.
.	.	4d/
1F	2A/	1c
.	[2c\	.
=35	=35	=35
1E	4c\]	2r
.	4B-\	.
.	4A/	2c/
.	4G/	.
1D	1F	1d
=36	=36	=36
1F	2r	2c/
.	2c\	2A/
2r	1d	1B-i
2BB-/	.	.
=37	=37	=37
1F	2c\	2A/
.	2A/	2F/
1G	1B-	2r
.	.	2d/
=38	=38	=38
2A\	2A/	2c/
2D\	2F/	2A/
1G	2r	2B-i/
.	2d\	2B-i/
=39	=39	=39
2r	2c\	1A
2F\	2A/	.
2D\	2B-\	2r
2BB-/	2B-\	[2f/
=40	=40	=40
2r	1A	4f/]
.	.	4e/
2AA/	.	2c/
1BB-	2r	1d
.	2f\	.
=41	=41	=41
1C	2e\	2c/
.	2c\	2.a/
2.F\	2d\	.
.	.	4g/
.	2d\	2a/
4E\	.	.
=42	=42	=42
1C	2e\	2g/
.	1c	2e/
1D	.	1f
.	2Bni\	.
=43	=43	=43
0C	2.c\	1e
.	4d\	.
.	[1e	1r
=44	=44	=44
2r	2e\]	1.g
1C	2e\	.
.	2e\	.
2C/	2c\	2g/
=45	=45	=45
2BB-/	2d\	1g
2GG/	2e\	.
2FF/	1f	1a
[2F\	.	.
=46	=46	=46
4F\]	2r	2f/
4D\	.	.
2E\	2e\	2g/
1D	2f\	2a/
.	2d\	2b\
=47	=47	=47
2r	1c	1cc
1A	.	.
.	1f	2r
2F\	.	2a/
=48	=48	=48
0F	1f	2a/
.	.	1a
.	2f\	.
.	2f\	2a/
=49	=49	=49
2r	1f	1a
2F\	.	.
1C	2e\	2g/
.	[2c\	2e/
=50	=50	=50
1G	2c\]	1d
.	2Bni\	.
1A	1c	1c
=51	=51	=51
1D	1d	2r
.	.	1f
2r	2d\	.
2D\	2d\	2f/
=52	=52	=52
1D	2d\	2f/
.	1A	2f/
1F	.	2c/
.	[2d\	2r
=53	=53	=53
1D	4d\]	2.f/
.	4c\	.
.	2.d\	.
.	.	4g/
1F	.	2.a/
.	4c\	.
.	2A/	.
.	.	4f/
=54	=54	=54
2E\	2G/	2.g/
2.C/	1c	.
.	.	4f/
.	.	4e/
4AA/	.	4c/
2BB-/	2B-\	2d/
=55	=55	=55
2AA/	2F/	2c/
2FF/	2A/	2f/
2C/	1G	2g/
2BB-/	.	2b-i\
=56	=56	=56
1D	1F	2a/
.	.	2f/
1C	1r	1e
=57	=57	=57
1C	1c	1r
1F	1c	1a
=58	=58	=58
1F	2c\	1a
.	1c	.
1F	.	2a/
.	[2c\	[2a/
=59	=59	=59
2F\	4c\]	2a/]
.	4c\	.
1F	2c\	2.a/
.	2c\	.
.	.	4a/
2F\	2c\	2a/
=60	=60	=60
1F	1c	2a/
.	.	2a/
2A\	1c	2a/
[2F\	.	[2a/
=61	=61	=61
2F\]	1A	2a/]
1D	.	1f
.	[1d	.
2BB-/	.	[2b-\
=62	=62	=62
1F	2d\]	4b-\]
.	.	4a/
.	2c\	1a
1G	1B-	.
.	.	2g/
=63	=63	=63
2.D\	1A	1a
4E\	.	.
1F	2.A/	1r
.	4B-\	.
=64	=64	=64
1FF	1c	2.a/
.	.	4b\
2r	2.F/	1cc
[2FF/	.	.
.	4G/	.
=65	=65	=65
2FF/]	2A/	1f
2BB-/	2.B-\	.
2GG/	.	2g/
.	4c\	.
[2BB-/	[2d\	2f/
=66	=66	=66
2BB-/]	2d\]	2.b-i\
2GG/	2B-\	.
.	.	4cc\
4FF/	4c\	2a/
2F\	2A/	.
.	.	4f/
4E\	4B-\	[4g/
=67	=67	=67
2C/	2c\	4g/]
.	.	4a/
2FF/	2A/	4f/
.	.	8e/L
.	.	8f/J
1C	1G	4g/
.	.	2e/
.	.	4d/
=68	=68	=68
0FFl	0Fl	0fl
!!LO:LB:i:g=z
=69||	=69||	=69||
*>B	*>B	*>B
*clefF4	*clefGv2	*clefG2
!	!	!keysig should be *K[B-]
*k[b-]	*k[b-]	*k[]
*M2/1	*M2/1	*M2/1
*met(C)	*met(C)	*met(C)
!!section: Et incarnatus est
!!!OMD: Et incarnatus est
!	!	!LO:TX:X=-40:Z=6:t=[key signature flat on B3 only]
0r	1c	1c
.	2c\	2c/
.	2B-\	2d/
=70	=70	=70
0r	2c\	2e/
.	2A/	2f/
.	2.B-\	1g
.	4c\	.
=71	=71	=71
0r	1F	1a
.	2F/	1a
.	[2F/	.
=72	=72	=72
0r	2F/]	2a/
.	2F/	2a/
.	2F/	2a/
.	2F/	[2a/
=73	=73	=73
0r	2A/	2a/]
.	2B-\	2f/
.	1c	2e/
.	.	2e/
=74	=74	=74
0r	2c\	2e/
.	2c\	2e/
.	2c\	1c
.	[2A/	.
=75	=75	=75
0r	2A/]	1.f
.	1d	.
.	2c\	2e/
=76	=76	=76
0r	2.B-\	2.d/
.	4A/	4c/
.	1F	1A
=77	=77	=77
0r	1c	1r
.	2B-\	1g
.	2c\	.
=78	=78	=78
0r	2F/	1a
.	2.c\	.
.	.	2.g/
.	4B-\	.
.	[2c\	.
.	.	4c/
=79	=79	=79
0r	2c\]	2e/
.	2A/	2f/
.	2G/	1g
.	[2c\	.
=80	=80	=80
0r	4c\]	2e/
.	4d\	.
.	4e\	2c/
.	4f\	.
.	2.d\	2f/
.	.	[2a/
.	4A/	.
=81	=81	=81
0r	2c\	4a/]
.	.	4g/
.	2A/	2cc\
.	4G/	2.b\
.	2g\	.
.	4e\	4g/
=82	=82	=82
0r	2f\	4a/
.	.	4b\
.	2e\	1cc
.	1d	.
.	.	2b\
=83	=83	=83
0r	1c	1cc
.	2A/	2r
.	2B-\	2f/
=84	=84	=84
0r	2c\	2e/
.	1B-	2f/
.	.	2g/
.	2A/	[2f/
=85	=85	=85
0r	1G	2f/]
.	.	2e/
.	1F	2.f/
.	.	4e/
=86	=86	=86
0r	2E/	2c/
.	2.G/	2B-/
.	.	2.d/
.	4F/	.
.	[2A/	.
.	.	4c/
=87	=87	=87
0r	4A/]	2e/
.	4G/	.
.	2B-\	2d/
.	1A	2f/
.	.	2e/
=88	=88	=88
0r	2.d\	2r
.	.	2.a/
.	4B-\	.
.	2c\	.
.	.	4g/
.	2F/	2a/
=89	=89	=89
0r	2r	2g/
.	1f	4f/
.	.	2d/
.	.	4c/
.	2e\	2c/
=90	=90	=90
0r	2f\	2r
.	2g\	1c
.	4e\	.
.	4c\	.
.	4d\	2B-/
.	4f\	.
=91	=91	=91
0r	2.e\	2c/
.	.	2A/
.	4c\	.
.	2d\	1B-
.	2G/	.
=92	=92	=92
0r	2A/	2c/
.	1G	2d/
.	.	2B-/
.	[2e\	[2c/
=93	=93	=93
0r	4e\]	4c/]
.	8d\L	2A/
.	8e\J	.
.	2f\	.
.	.	4F/
.	4e\	2c/
.	4c\	.
.	[2c\	2e/
=94	=94	=94
1r	2c\]	1d
.	2Bni\	.
[1C	[1c	1c
=95	=95	=95
1C]	2c\]	0r
.	4B-\	.
.	4A/	.
1C	2c\	.
.	2G/	.
=96	=96	=96
1F	2r	0r
.	2A/	.
2E\	2G/	.
2C/	2c\	.
=97	=97	=97
1D	2A/	0r
.	2B-\	.
1C	1c	.
=98	=98	=98
1D	2A/	0r
.	1B-	.
1E	.	.
.	2G/	.
=99	=99	=99
2.F\	2A/	0r
.	2B-\	.
4D\	.	.
2F\	2A/	.
2G\	2d\	.
=100	=100	=100
1E	4c\	0r
.	2c\	.
.	4A/	.
1D	2.B-\	.
.	8c\L	.
.	8d\J	.
=101	=101	=101
2G\	2e-i\	0r
1G	4d\	.
.	2d\	.
.	8c\L	.
.	8B-\J	.
2F\	2A/	.
=102	=102	=102
2E\	1G	0r
1C	.	.
.	1c	.
2AA/	.	.
=103	=103	=103
2GG/	2.B-\	0r
1G	.	.
.	4c\	.
.	2d\	.
2E\	[2c\	.
=104	=104	=104
2F\	2c\]	0r
2A\	2f\	.
1G	2e\	.
.	[2g\	.
=105	=105	=105
2E\	2g\]	0r
1F	2c\	.
.	2d\	.
2D\	2f\	.
=106	=106	=106
1C	2e\	0r
.	1c	.
2FF/	.	.
2GG/	2B-\	.
=107	=107	=107
2AA/	2A/	0r
2BB-/	4G/	.
.	4F/	.
1C	1El	.
=108	=108	=108
0C	0r	1g
.	.	4a/
.	.	4b\
.	.	[2cc\
=109	=109	=109
2AA/	0r	2cc\]
2BB-/	.	4b\
.	.	4a/
1C	.	2.g/
.	.	4f/
=110	=110	=110
2FF/	0r	1.a
1F	.	.
2D\	.	2f/
=111	=111	=111
2F\	0r	2a/
2E\	.	1g
1C	.	.
.	.	[2cc\
=112	=112	=112
2AA/	0r	2cc\]
1GG	.	2b\
.	.	2g/
[2C/	.	[2a/
=113	=113	=113
2C/]	0r	4a/]
.	.	2g/
1BB-	.	.
.	.	4e/
.	.	2d/
[2C/	.	2c/
=114	=114	=114
2C/]	0r	2e/
2AA/	.	2f/
2GG/	.	1g
[2C/	.	.
=115	=115	=115
2C/]	0r	2a/
2D\	.	2f/
2BB-/	.	1g
[2C/	.	.
=116	=116	=116
2C/]	0r	2.c/
1FF	.	.
.	.	8B-/L
.	.	8c/J
.	.	2d/
[2C/	.	4c/
.	.	[4A/
=117	=117	=117
2C/]	0r	4A/]
.	.	4G/
2D\	.	2B-/
4C/	.	1c
2AA/	.	.
4GG/	.	.
=118	=118	=118
2BB-/	0r	2d/
1C	.	2e/
.	.	1c
[2FF/	.	.
=119	=119	=119
2FF/]	0r	2f/
1C	.	2e/
.	.	2.g/
[2D\	.	.
.	.	4f/
=120	=120	=120
2D\]	0r	2.a/
1C	.	.
.	.	4g/
.	.	4e/
.	.	4c/
[2F\	.	2d/
=121	=121	=121
2F\]	0r	2c/
2E\	.	2r
2F\	.	2.cc\
[2G\	.	.
.	.	[4b\
=122	=122	=122
2G\]	0r	2b\]
2F\	.	2.a/
1C	.	.
.	.	2.g/
=123	=123	=123
2FF/	0r	1a
1C	.	.
.	.	2g/
2C/	.	[2cc\
=124	=124	=124
1F	0r	2cc\]
.	.	2f/
2BB-/	.	2g/
2C/	.	[2a/
=125	=125	=125
1D	0r	4a/]
.	.	8g/L
.	.	8a/J
.	.	2b-i\
2E\	.	2g/
2C/	.	[2a/
=126	=126	=126
2F\	0r	4a/]
.	.	4f/
2A\	.	1f
1G	.	.
.	.	2e/
=127	=127	=127
0Fl	0r	0fl
!!LO:LB:i:g=z
=128||	=128||	=128||
*>C	*>C	*>C
*clefF4	*clefGv2	*clefG2
*k[b-]	*k[b-]	*k[]
*M2/1	*M2/1	*M2/1
*met(C)	*met(C)	*met(C)
!!section: Et iterum
!!!OMD: Et iterum
0r	0c	0e
=129	=129	=129
0r	1c	1e
.	1c	1e
=130	=130	=130
0r	1A	1f
.	1A	1c
=131	=131	=131
0r	1B-	1f
.	1G	1g
=132	=132	=132
1r	1F	1a
1C	1E	1a
=133	=133	=133
1D	1F	1a
1E	1G	1g
=134	=134	=134
0F	1F	1a
.	1A	[1cc
=135	=135	=135
0C	0G	2cc\]
.	.	4b\
.	.	4a/
.	.	1g
=136	=136	=136
1r	0c	1g
1AA	.	1a
=137	=137	=137
0BB-	0d	1f
.	.	[1b-
=138	=138	=138
1GG	1e	1b-]
1FF	1f	1a
=139	=139	=139
1AA	1F	1A
[1GG	1G	1B-i
=140	=140	=140
1GG]	1G	1B-i
[1D	[1F	1A
=141	=141	=141
1D]	1F]	1f
1D	[1d	1f
=142	=142	=142
0F	2d\]	0f
.	4c\	.
.	4B-\	.
.	1A	.
=143	=143	=143
[0C	1A	1e
.	[1c	1e
=144	=144	=144
0C]	2c\]	1.g
.	4B-\	.
.	4A/	.
.	1G	.
.	.	4f/
.	.	4e/
=145	=145	=145
1BB-	1f	1d
1C	1e	1c
=146	=146	=146
1AA	1c	0f
1BB-	1d	.
=147	=147	=147
[0C	2c\	0e
.	1A	.
.	2G/	.
=148	=148	=148
0C]	1G	0r
.	1c	.
=149	=149	=149
1C	1r	1e
1AA	1c	1e
=150	=150	=150
1BB-	2B-\	1g
.	1B-	.
1GG	.	1g
.	2G/	.
=151	=151	=151
1D	1F	0a
1C	1c	.
=152	=152	=152
1.F	1d	1a
.	1c	1a
2E\	.	.
=153	=153	=153
1D	1f	1a
2E\	2e\	2g/
2C/	[2e\	[2g/
=154	=154	=154
2r	2e\]	2g/]
2C/	4d\	2e/
.	4c\	.
1GG	2.Bni\	1d
.	4A/	.
=155	=155	=155
0C	1.c	1c
.	.	1c
.	2d\	.
=156	=156	=156
0r	1e	1c
.	1f	1d
=157	=157	=157
1C	1c	1e
[1D	2r	[1f
.	[2B-\	.
=158	=158	=158
2D\]	2B-\]	1f]
2E\	4A/	.
.	4G/	.
[1F	[1A	1d
=159	=159	=159
2F\]	2A/]	1A
2D\	2F/	.
1D	[1F	1B-i
=160	=160	=160
0BB-	1F]	0d
.	1B-	.
=161	=161	=161
1r	1G	1d
[1BB-	[1B-	[1d
=162	=162	=162
0BB-]	2B-\]	2d/]
.	4A/	2d/
.	4G/	.
.	2F/	1d
.	2G/	.
=163	=163	=163
1.AA	2A/	1c
.	1F	.
.	.	2A/
[2GG/	[2G/	[2B-i/
=164	=164	=164
2GG/]	2G/]	2B-/]
1FF	1A	2A/
.	.	1F
2FF/	2F/	.
=165	=165	=165
1C	2E/	0G
.	1E	.
1C	.	.
.	4D/	.
.	4E/	.
=166	=166	=166
1D	1F	0F
1F	1A	.
=167	=167	=167
2E\	1G	0r
1E	.	.
.	1G	.
4D\	.	.
4E\	.	.
=168	=168	=168
0F	1A	1r
.	1c	1A
=169	=169	=169
0r	2B-\	1G
.	1B-	.
.	.	1G
.	4A/	.
.	4B-\	.
=170	=170	=170
1F	1c	1A
1C	1e	1c
=171	=171	=171
0G	0d	2B/
.	.	1B
.	.	2A/
=172	=172	=172
1A	1c	1c
[1F	[1A	2c/
.	.	[2f/
=173	=173	=173
1F]	2A/]	2f/]
.	2B-\	2d/
[1C	2.c\	2e/
.	.	2f/
.	4d\	.
=174	=174	=174
2C/]	2e\	2.g/
1.BB-	2d\	.
.	.	4f/
.	2.f\	1d
.	4g\	.
=175	=175	=175
1C	2e\	1c
.	1e	.
1AA	.	2c/
.	2c\	[2f/
=176	=176	=176
1BB-	1d	2f/]
.	.	2f/
2AA/	2r	2a/
2GG/	2d\	2b\
=177	=177	=177
1AA	2c\	1.cc
.	1A	.
2FF/	.	.
[2F\	2F/	[2a/
=178	=178	=178
2F\]	1F	2a/]
2D\	.	2f/
1E	1r	2g/
.	.	2b-i\
=179	=179	=179
1F	1c	1a
[1G	1B-	1d
=180	=180	=180
1G]	0G	1b-
1E	.	1b-i
=181	=181	=181
1G	1.d	1b-i
[1D	.	2b-i\
.	4c\	[2a/
.	4B-\	.
=182	=182	=182
1D]	1A	2a/]
.	.	1a
1AA	1c	.
.	.	2a/
=183	=183	=183
1BB-	0B-	2g/
.	.	1f
2.D\	.	.
.	.	4e/
4E\	.	4d/
=184	=184	=184
1.F	1A	2d/
.	.	2c/
.	2.F/	1A
2D\	.	.
.	4G/	.
=185	=185	=185
1C	4A/	1r
.	4B-\	.
.	2c\	.
1D	2A/	1f
.	2B-\	.
=186	=186	=186
2C/	0c	1e
2AA/	.	.
2GG/	.	1e
2C/	.	.
=187	=187	=187
2D\	1r	0d
1BB-	.	.
.	1f	.
2AA/	.	.
=188	=188	=188
1C	1e	1c
1AA	1e	1c
=189	=189	=189
1BB-	0d	1d
1GG	.	1B
=190	=190	=190
1r	1c	1A
1C	1c	1e
=191	=191	=191
2BB-/	1d	1f
1D	.	.
.	1B-	1g
2E\	.	.
=192	=192	=192
1F	2A/	1a
.	1F	.
1r	.	1a
.	[2c\	.
=193	=193	=193
1C	2c\]	2g/
.	2c\	2e/
1D	2A/	1f
.	4B-\	.
.	4A/	.
=194	=194	=194
2BB-/	2B-\	2g/
2.AA/	2.c\	2a/
.	.	2b\
4GG/	4G/	.
2AA/	2c\	[2cc\
=195	=195	=195
1GG	1d	2cc\]
.	.	2b\
[1AA	1c	[1cc
=196	=196	=196
2AA/]	0f	1cc]
2FF/	.	.
1FF	.	1r
=197	=197	=197
1.BB-	1r	1.f
.	[1F	.
2AA/	.	2g/
=198	=198	=198
0FF	2F/]	1a
.	2G/	.
.	1A	1a
=199	=199	=199
1r	1A	1f
[1F	1F	[1cc
=200	=200	=200
2F\]	1.c	2cc\]
2D\	.	2b\
1C	.	1a
.	4B-\	.
.	4c\	.
=201	=201	=201
1BB-	1d	1b-
1r	2c\	2a/
.	2A/	2f/
=202	=202	=202
1GG	1B-	1g
[1D	1A	[1a
=203	=203	=203
1D]	0d	2a/]
.	.	2f/
1D	.	1f
=204	=204	=204
2.D\	1.F#	1d
4C/	.	.
2AA/	.	1r
2GG/	[2G/	.
=205	=205	=205
2C/	4G/]	1g
.	4A/	.
2BB-/	2.B-\	.
1GG	.	1g
.	4G/	.
.	2B-\	.
=206	=206	=206
1C	2c\	1g
.	2.e-i\	.
1G	.	1g
.	4d\	.
.	4c\	.
.	4B-\	.
=207	=207	=207
0D	2A/	0f
.	2G/	.
.	2A/	.
.	2d\	.
=208	=208	=208
2BB-/	2r	1g
1GG	2B-\	.
.	1G	2e/
[2C/	.	[2c/
=209	=209	=209
2C/]	2c\	2c/]
2D\	4B-\	1f
.	4c\	.
2BB-/	2d\	.
2C/	[2c\	2e/
=210	=210	=210
1GG	2c\]	1d
.	2Bni\	.
1C	[1c	1c
=211	=211	=211
0F	2c\]	1r
.	2A/	.
.	1A	1c
=212	=212	=212
1BB-	1B-	1d
[1C	[1G	[1e
=213	=213	=213
1C]	1G]	1e]
[1D	1F	1A
=214	=214	=214
2D\]	1r	1A
2C/	.	.
1AA	1F	1A
=215	=215	=215
2GG/	2.G/	1d
1BB-	.	.
.	4A/	.
.	1B-	1d
2GG/	.	.
=216	=216	=216
2C/	2A/	2c/
2D\	2F/	2A/
1BB-	1G	1B-i
=217	=217	=217
2AA/	2.A/	1c
1FF	.	.
.	4B-\	.
.	2c\	2A/
2BB-/	2B-\	[2G/
=218	=218	=218
2C/	1G	2G/]
2BB-/	.	2.d/
2GG/	1r	.
.	.	4c/
[2D\	.	4B-i/
.	.	4A/
=219	=219	=219
2D\]	0r	1A
2C/	.	.
1BB-	.	2G/
.	.	2F/
=220	=220	=220
0AA	2r	2.A/
.	1E	.
.	.	4B/
.	.	1c
.	2F/	.
=221	=221	=221
1GG	1G	2B-i/
.	.	2G/
2r	1F	1A
2D\	.	.
=222	=222	=222
2BB-/	1G	2B-i/
1C	.	2G/
.	2E/	2r
2AA/	2F/	[2c/
=223	=223	=223
1GG	1G	4c/]
.	.	4A/
.	.	2B/
1FF	2A/	[1c
.	2F/	.
=224	=224	=224
2r	2r	2c/]
1F	2c\	2A/
.	2d\	1G
2E\	2c\	.
=225	=225	=225
2F\	1A	1F
4E\	.	.
4F\	.	.
2.G\	2G/	1r
.	[2B-\	.
4F\	.	.
=226	=226	=226
1D	4B-\]	2r
.	4A/	.
.	2F/	2f/
1C	1G	4e/
.	.	4d/
.	.	2e/
=227	=227	=227
1D	1F	2f/
.	.	4e/
.	.	4f/
1C	2c\	2g/
.	4B-\	2e/
.	4c\	.
=228	=228	=228
1BB-	2d\	1d
.	2B-\	.
2.C/	2A/	1c
.	2G/	.
4BB-/	.	.
=229	=229	=229
2C/	1c	2r
2AA/	.	2cc\
1GG	1d	2b\
.	.	4a/
.	.	4b\
=230	=230	=230
1C	2e\	1.cc
.	2c\	.
1FF	2r	.
.	2f\	4b\
.	.	4a/
=231	=231	=231
1C	4e\	1g
.	4d\	.
.	2e\	.
2r	[1f	1f
[2D\	.	.
=232	=232	=232
2D\]	2f\]	2r
2BB-/	2d\	2b-\
1F	1c	2a/
.	.	4g/
.	.	4a/
=233	=233	=233
2.G\	0B-	2.b-i\
4F\	.	4a/
2D\	.	2f/
[2E\	.	[2g/
=234	=234	=234
2E\]	1c	2g/]
2C/	.	2e/
1GG	2r	1d
.	2B-\	.
=235	=235	=235
2r	2c\	2c/
2GG/	2B-\	2d/
2C/	2c\	2c/
[2D\	2A/	2f/
=236	=236	=236
2D\]	2B-\	2d/
2C/	2c\	2e/
2D\	2F/	2f/
2C/	[2c\	2a/
=237	=237	=237
1E	4c\]	2g/
.	4B-\	.
.	2G/	2b-i\
2F\	2F/	2a/
2D\	[2B-\	2f/
=238	=238	=238
1E	2B-\]	4g/
.	.	4f/
.	2G/	4e/
.	.	4d/
1F	1A	2c/
.	.	[2f/
=239	=239	=239
2BB-/	2d\	4f/]
.	.	4g/
1AA	2c\	2a/
.	2.f\	2f/
[2FF/	.	[2cc\
.	4e\	.
=240	=240	=240
2FF/]	2c\	4cc\]
.	.	4a/
2.GG/	2B-\	2.b-\
.	1d	.
4AA/	.	4a/
2BB-/	.	4g/
.	.	4f/
=241	=241	=241
2.C/	2c\	2e/
.	1B-	1g
4D\	.	.
2E\	.	.
2F\	2A/	[2f/
=242	=242	=242
1C	1G	2f/]
.	.	2e/
1FFl	1Fl	1fl
==	==	==
*-	*-	*-
!!!RDF**kern: l=long note in original notation
!!!RDF**kern: i=editorial accidental
!!!RDF**kern: V=start of tuplet marker
!!!RDF**kern: Z=end of tuplet marker
!!!ENC:	Chris Gage 08-06-2012
!!!END:	2012/08/09/
!!!EED:	Jesse Rodin
!!!EEV:	2012/08/12/
!!!ONB:	Translated from MusicXML and edited on 2012/08/12/ by Craig Sapp
!!muse2ps: T^@{OPR}^u^@{ONM}{. }@{OTL}^C^@{COM}^i2I150v85,85,150Q16
